icons/small-pinterest.svg

<svg xmlns="http://www.w3.org/2000/svg" width="30" height="30" viewBox="0 0 30 30"><path d="M6.61 10.65c3.83-6.62 15.16-7.16 18.97-.25 2.59 5.17.37 13.22-5.64 14.83-2.11.7-4.11-.4-5.88-1.43-.65 2.71-1.44 5.4-2.66 7.92-2.64-.47-1.6-2.93-1.48-4.57.88-3.98 2.18-7.95 1.73-12.09-.29-2.23 2.47-4.52 4.42-2.85 1.41 3.06-1.45 6.18-.75 9.29 1.31 2.13 4.46 1.4 5.65-.45 1.92-2.89 2.69-6.98 1.05-10.15-3.06-4.66-11.3-3.35-13.16 1.8-1.53 2.98.54 6.08.5 9.13-4.61-1.55-5.04-7.56-2.75-11.18z"/></svg>

<svg xmlns="http://www.w3.org/2000/svg" width="30" height="30" viewBox="0 0 30 30">
<path d=" M 6.61 10.65 C 10.44 4.03 21.77 3.49 25.58 10.40 C 28.17 15.57 25.95 23.62 19.94 25.23 C 17.83 25.93 15.83 24.83 14.06 23.80 C 13.41 26.51 12.62 29.20 11.40 31.72 C 8.76 31.25 9.80 28.79 9.92 27.15 C 10.80 23.17 12.10 19.20 11.65 15.06 C 11.36 12.83 14.12 10.54 16.07 12.21 C 17.48 15.27 14.62 18.39 15.32 21.50 C 16.63 23.63 19.78 22.90 20.97 21.05 C 22.89 18.16 23.66 14.07 22.02 10.90 C 18.96 6.24 10.72 7.55 8.86 12.70 C 7.33 15.68 9.40 18.78 9.36 21.83 C 4.75 20.28 4.32 14.27 6.61 10.65 Z" />
</svg>
